X: 4666
T: Boy In The Wood, The
R: jig
M: 6/8
K: Gmajor
|:d|dBG AGE|GED DEG|GAB AGA|GAB ABd|
dBG AGE|GED DEG|GAB AGA|BGG G2:|
|:A|Bdd Bee|d2d dBG|GBd ege|dBG A2G|
Bdd Bee|d2d dBG|GAB AGA|BGG G2:|

